packages/ffe-icons/icons/filled/sm/point_scan.svg

<svg xmlns="http://www.w3.org/2000/svg" height="20" viewBox="0 -960 960 960" width="20"><path d="M479.788-418.001q-25.942 0-43.864-18.135-17.923-18.135-17.923-44.076 0-25.942 18.135-43.864 18.135-17.923 44.076-17.923 25.942 0 43.864 18.135 17.923 18.135 17.923 44.076 0 25.942-18.135 43.864-18.135 17.923-44.076 17.923Zm-25.787-231.998v-168q0-11.05 7.418-18.525 7.418-7.475 18.384-7.475 10.966 0 18.581 7.475t7.615 18.525v168q0 11.049-7.418 18.524Q491.163-624 480.197-624q-10.966 0-18.581-7.475t-7.615-18.524Zm0 507.998v-168q0-11.049 7.418-18.524Q468.837-336 479.803-336q10.966 0 18.581 7.475t7.615 18.524v168q0 11.05-7.418 18.525-7.418 7.475-18.384 7.475-10.966 0-18.581-7.475t-7.615-18.525Zm195.998-363.998h168q11.05 0 18.525 7.418 7.475 7.418 7.475 18.384 0 10.966-7.475 18.581t-18.525 7.615h-168q-11.049 0-18.524-7.418Q624-468.837 624-479.803q0-10.966 7.475-18.581t18.524-7.615Zm-507.998 0h168q11.049 0 18.524 7.418Q336-491.163 336-480.197q0 10.966-7.475 18.581t-18.524 7.615h-168q-11.05 0-18.525-7.418-7.475-7.418-7.475-18.384 0-10.966 7.475-18.581t18.525-7.615Z"/></svg>

<svg xmlns="http://www.w3.org/2000/svg" height="20" viewBox="0 -960 960 960" width="20"><path d="M479.79-418q-25.94 0-43.87-18.14Q418-454.27 418-480.21t18.14-43.87Q454.27-542 480.21-542t43.87 18.14Q542-505.73 542-479.79t-18.14 43.87Q505.73-418 479.79-418ZM454-650v-168q0-11.05 7.42-18.52 7.42-7.48 18.38-7.48 10.97 0 18.58 7.48Q506-829.05 506-818v168q0 11.05-7.42 18.53-7.42 7.47-18.38 7.47-10.97 0-18.58-7.47Q454-638.95 454-650Zm0 508v-168q0-11.05 7.42-18.53 7.42-7.47 18.38-7.47 10.97 0 18.58 7.47Q506-321.05 506-310v168q0 11.05-7.42 18.52-7.42 7.48-18.38 7.48-10.97 0-18.58-7.48Q454-130.95 454-142Zm196-364h168q11.05 0 18.52 7.42 7.48 7.42 7.48 18.38 0 10.97-7.48 18.58Q829.05-454 818-454H650q-11.05 0-18.53-7.42-7.47-7.42-7.47-18.38 0-10.97 7.47-18.58Q638.95-506 650-506Zm-508 0h168q11.05 0 18.53 7.42 7.47 7.42 7.47 18.38 0 10.97-7.47 18.58Q321.05-454 310-454H142q-11.05 0-18.52-7.42-7.48-7.42-7.48-18.38 0-10.97 7.48-18.58Q130.95-506 142-506Z"/></svg>
